X:742
T:Reel 742
M:4/4
K:Gmaj
L:1/8
dc|BGGB d2ce|dBgB AGEG|Bdde dcAc|BAgf g2ge|dGBG dgge|dBGB AGEG|Bdef gage|dBAB G2|Bd|dgg2 agbg|dGBG AGEG|dggd efge|dBGB A2g2|dggf aged|dBBc d2ef|gedB c2Bc|dBAB G2|
